newicons/fairscan.svg

<?xml version="1.0" encoding="UTF-8" standalone="no"?>
<svg
   id="Layer_1"
   data-name="Layer 1"
   version="1.1"
   viewBox="0 0 48 48"
   xml:space="preserve"
   xmlns="http://www.w3.org/2000/svg"
   xmlns:svg="http://www.w3.org/2000/svg"><defs
     id="defs1"><style
       id="style1">
      .cls-1 {
        fill: none;
        stroke: #fff;
        stroke-linecap: round;
        stroke-linejoin: round;
      }
    </style></defs><path
     id="rect1"
     class="cls-1"
     style="fill:none;stroke:#ffffff;stroke-linecap:round;stroke-linejoin:round"
     d="M 33.842626,5.5 H 38.5 c 2.216,0 4,1.784 4,4 v 4.332204 m 0,20.260552 V 38.5 c 0,2.216 -1.784,4 -4,4 h -4.657374 m -20.260552,0 H 9.5 c -2.216,0 -4,-1.784 -4,-4 v -4.407244 m 0,-20.260552 V 9.5 c 0,-2.216 1.784,-4 4,-4 h 4.082074" /><path
     style="fill:none;stroke:#ffffff;stroke-linecap:round;stroke-linejoin:round;stroke-dashoffset:0.5"
     d="M 12.593059,8.7726931 V 38.062169 H 35.44451 V 15.42296 c 0,0 -6.01354,-6.5795194 -6.155035,-6.6502669 -0.141495,-0.070747 -16.696416,0 -16.696416,0 z"
     id="path8" /><path
     style="fill:none;stroke:#ffffff;stroke-linecap:round;stroke-linejoin:round;stroke-dashoffset:0.5"
     d="M 16.837911,22.709956 H 29.254102"
     id="path9" /><path
     style="fill:none;stroke:#ffffff;stroke-linecap:round;stroke-linejoin:round;stroke-dashoffset:0.5"
     d="m 16.73179,26.707191 h 7.676106"
     id="path10" /></svg>

<?xml version="1.0" encoding="UTF-8"?><svg id="b" xmlns="http://www.w3.org/2000/svg" viewBox="0 0 48 48"><defs><style>.g{fill:none;stroke:#fff;stroke-linecap:round;stroke-linejoin:round;}</style></defs><path id="c" class="g" d="M33.8426,5.5h4.6574c2.216,0,4,1.784,4,4v4.3322M42.5,34.0928v4.4072c0,2.216-1.784,4-4,4h-4.6574M13.5821,42.5h-4.0821c-2.216,0-4-1.784-4-4v-4.4072M5.5,13.8322v-4.3322c0-2.216,1.784-4,4-4h4.0821"/><path id="d" class="g" d="M12.5931,8.7727v29.2895h22.8515V15.423s-6.0135-6.5795-6.155-6.6503-16.6964,0-16.6964,0Z"/><path id="e" class="g" d="M16.8379,22.71h12.4162"/><path id="f" class="g" d="M16.7318,26.7072h7.6761"/></svg>
